fonts/e.svg

<?xml version="1.0" encoding="UTF-8" standalone="no"?>
<!-- Created with Inkscape (http://www.inkscape.org/) -->
<svg
   xmlns:dc="http://purl.org/dc/elements/1.1/"
   xmlns:cc="http://creativecommons.org/ns#"
   xmlns:rdf="http://www.w3.org/1999/02/22-rdf-syntax-ns#"
   xmlns:svg="http://www.w3.org/2000/svg"
   xmlns="http://www.w3.org/2000/svg"
   xmlns:sodipodi="http://sodipodi.sourceforge.net/DTD/sodipodi-0.dtd"
   xmlns:inkscape="http://www.inkscape.org/namespaces/inkscape"
   width="1000"
   height="1000"
   id="svg2"
   sodipodi:version="0.32"
   inkscape:version="0.46+devel"
   version="1.0"
   sodipodi:docname="e.svg"
   inkscape:output_extension="org.inkscape.output.svg.inkscape"
   style="display:inline">
  <defs
     id="defs4">
    <inkscape:perspective
       sodipodi:type="inkscape:persp3d"
       inkscape:vp_x="0 : 526.18109 : 1"
       inkscape:vp_y="0 : 1000 : 0"
       inkscape:vp_z="744.09448 : 526.18109 : 1"
       inkscape:persp3d-origin="372.04724 : 350.78739 : 1"
       id="perspective10" />
    <inkscape:perspective
       id="perspective8089"
       inkscape:persp3d-origin="0.5 : 0.33333333 : 1"
       inkscape:vp_z="1 : 0.5 : 1"
       inkscape:vp_y="0 : 1000 : 0"
       inkscape:vp_x="0 : 0.5 : 1"
       sodipodi:type="inkscape:persp3d" />
    <inkscape:perspective
       id="perspective8102"
       inkscape:persp3d-origin="0.5 : 0.33333333 : 1"
       inkscape:vp_z="1 : 0.5 : 1"
       inkscape:vp_y="0 : 1000 : 0"
       inkscape:vp_x="0 : 0.5 : 1"
       sodipodi:type="inkscape:persp3d" />
    <inkscape:perspective
       id="perspective9638"
       inkscape:persp3d-origin="372.04724 : 350.78739 : 1"
       inkscape:vp_z="744.09448 : 526.18109 : 1"
       inkscape:vp_y="0 : 1000 : 0"
       inkscape:vp_x="0 : 526.18109 : 1"
       sodipodi:type="inkscape:persp3d" />
  </defs>
  <sodipodi:namedview
     id="base"
     pagecolor="#ffffff"
     bordercolor="#666666"
     borderopacity="1.0"
     gridtolerance="10000"
     guidetolerance="10"
     objecttolerance="10"
     inkscape:pageopacity="0.0"
     inkscape:pageshadow="2"
     inkscape:zoom="0.35355339"
     inkscape:cx="-140.87087"
     inkscape:cy="264.98867"
     inkscape:document-units="px"
     inkscape:current-layer="layer1"
     showgrid="true"
     borderlayer="true"
     inkscape:showpageshadow="false"
     inkscape:snap-bbox="true"
     inkscape:snap-nodes="true"
     showguides="true"
     inkscape:guide-bbox="true"
     inkscape:window-width="1239"
     inkscape:window-height="953"
     inkscape:window-x="222"
     inkscape:window-y="205">
    <sodipodi:guide
       orientation="0,1"
       position="565.71429,200"
       id="guide8078" />
    <sodipodi:guide
       orientation="0,1"
       position="880,800"
       id="guide8080" />
    <inkscape:grid
       type="xygrid"
       id="grid8979"
       visible="true"
       enabled="true" />
    <sodipodi:guide
       orientation="0,1"
       position="1357.645,620"
       id="guide8993" />
    <sodipodi:guide
       orientation="0,1"
       position="870,510"
       id="guide8997" />
    <sodipodi:guide
       orientation="0,1"
       position="597,310"
       id="guide8999" />
    <sodipodi:guide
       orientation="-0.27563736,0.9612617"
       position="528,216"
       id="guide9513" />
    <sodipodi:guide
       orientation="0.37460659,0.92718385"
       position="658,384"
       id="guide9515" />
    <sodipodi:guide
       orientation="1,0"
       position="515,375"
       id="guide9625" />
    <sodipodi:guide
       orientation="0,1"
       position="737.66546,14.440433"
       id="guide10011" />
    <sodipodi:guide
       orientation="0,1"
       position="745.99765,449.01281"
       id="guide10242" />
    <sodipodi:guide
       orientation="0,1"
       position="1085.4392,373.04452"
       id="guide10244" />
  </sodipodi:namedview>
  <metadata
     id="metadata7">
    <rdf:RDF>
      <cc:Work
         rdf:about="">
        <dc:format>image/svg+xml</dc:format>
        <dc:type
           rdf:resource="http://purl.org/dc/dcmitype/StillImage" />
      </cc:Work>
    </rdf:RDF>
  </metadata>
  <g
     inkscape:label="Layer 1"
     inkscape:groupmode="layer"
     id="layer1"
     style="display:inline">
    <g
       id="g9629"
       transform="matrix(0.8901714,0,0,-0.8901714,-42.22279,801.94124)" />
    <path
       style="opacity:1;fill:#000000;fill-opacity:1;fill-rule:nonzero;stroke:none;stroke-width:1;stroke-linecap:butt;stroke-linejoin:miter;marker:none;marker-start:none;marker-mid:none;marker-end:none;stroke-miterlimit:4;stroke-dasharray:none;stroke-dashoffset:0;stroke-opacity:1;visibility:visible;display:inline;overflow:visible;enable-background:accumulate"
       d="M 431.15625,380 C 358.48958,380 300,438.48958 300,511.15625 l 0,157.6875 c 0,72.66667 46.72203,142.39889 135,142.39889 60.94071,0 225.46233,-62.26256 225.46233,-62.26256 6.3172,-1.69268 8.0745,-6.54792 7.60798,-10.1446 C 668.07031,738.83548 668,690 668,690 l -248,0 c -5.5,0 -9.9375,-4.4375 -9.9375,-9.9375 l 0,-53.09375 301.09375,0 0,-115.8125 C 711.15625,438.48958 652.66664,380 580,380 l -148.84375,0 z M 430,484 l 151.15625,0 c 10,0 20,10 20,20 l -0.125,46.98719 -191.03125,0 L 410,504 c 0,-10 10,-20 20,-20 z"
       id="rect10077"
       sodipodi:nodetypes="cccsccccccccccccccccc" />
  </g>
</svg>

<?xml version="1.0" encoding="UTF-8" standalone="no"?>
<!-- Created with Inkscape (http://www.inkscape.org/) -->
<svg
   xmlns:dc="http://purl.org/dc/elements/1.1/"
   xmlns:cc="http://creativecommons.org/ns#"
   xmlns:rdf="http://www.w3.org/1999/02/22-rdf-syntax-ns#"
   xmlns:svg="http://www.w3.org/2000/svg"
   xmlns="http://www.w3.org/2000/svg"
   xmlns:sodipodi="http://sodipodi.sourceforge.net/DTD/sodipodi-0.dtd"
   xmlns:inkscape="http://www.inkscape.org/namespaces/inkscape"
   width="1000"
   height="1000"
   id="svg2"
   sodipodi:version="0.32"
   inkscape:version="0.46"
   version="1.0"
   sodipodi:docname="e.svg"
   inkscape:output_extension="org.inkscape.output.svg.inkscape"
   style="display:inline">
  <defs
     id="defs4">
    <inkscape:perspective
       sodipodi:type="inkscape:persp3d"
       inkscape:vp_x="0 : 526.18109 : 1"
       inkscape:vp_y="0 : 1000 : 0"
       inkscape:vp_z="744.09448 : 526.18109 : 1"
       inkscape:persp3d-origin="372.04724 : 350.78739 : 1"
       id="perspective10" />
    <inkscape:perspective
       id="perspective8089"
       inkscape:persp3d-origin="0.5 : 0.33333333 : 1"
       inkscape:vp_z="1 : 0.5 : 1"
       inkscape:vp_y="0 : 1000 : 0"
       inkscape:vp_x="0 : 0.5 : 1"
       sodipodi:type="inkscape:persp3d" />
    <inkscape:perspective
       id="perspective8102"
       inkscape:persp3d-origin="0.5 : 0.33333333 : 1"
       inkscape:vp_z="1 : 0.5 : 1"
       inkscape:vp_y="0 : 1000 : 0"
       inkscape:vp_x="0 : 0.5 : 1"
       sodipodi:type="inkscape:persp3d" />
    <inkscape:perspective
       id="perspective9638"
       inkscape:persp3d-origin="372.04724 : 350.78739 : 1"
       inkscape:vp_z="744.09448 : 526.18109 : 1"
       inkscape:vp_y="0 : 1000 : 0"
       inkscape:vp_x="0 : 526.18109 : 1"
       sodipodi:type="inkscape:persp3d" />
  </defs>
  <sodipodi:namedview
     id="base"
     pagecolor="#ffffff"
     bordercolor="#666666"
     borderopacity="1.0"
     gridtolerance="10000"
     guidetolerance="10"
     objecttolerance="10"
     inkscape:pageopacity="0.0"
     inkscape:pageshadow="2"
     inkscape:zoom="0.70710678"
     inkscape:cx="486.3678"
     inkscape:cy="470.3418"
     inkscape:document-units="px"
     inkscape:current-layer="layer1"
     showgrid="true"
     borderlayer="true"
     inkscape:showpageshadow="false"
     inkscape:snap-bbox="true"
     inkscape:snap-nodes="true"
     showguides="true"
     inkscape:guide-bbox="true"
     inkscape:window-width="1239"
     inkscape:window-height="953"
     inkscape:window-x="222"
     inkscape:window-y="205">
    <sodipodi:guide
       orientation="0,1"
       position="565.71429,200"
       id="guide8078" />
    <sodipodi:guide
       orientation="0,1"
       position="880,800"
       id="guide8080" />
    <inkscape:grid
       type="xygrid"
       id="grid8979"
       visible="true"
       enabled="true" />
    <sodipodi:guide
       orientation="0,1"
       position="1357.645,620"
       id="guide8993" />
    <sodipodi:guide
       orientation="0,1"
       position="870,510"
       id="guide8997" />
    <sodipodi:guide
       orientation="0,1"
       position="597,310"
       id="guide8999" />
    <sodipodi:guide
       orientation="-0.27563736,0.9612617"
       position="528,216"
       id="guide9513" />
    <sodipodi:guide
       orientation="0.37460659,0.92718385"
       position="658,384"
       id="guide9515" />
    <sodipodi:guide
       orientation="1,0"
       position="515,375"
       id="guide9625" />
    <sodipodi:guide
       orientation="0,1"
       position="737.66546,14.440433"
       id="guide10011" />
    <sodipodi:guide
       orientation="0,1"
       position="745.99765,449.01281"
       id="guide10242" />
    <sodipodi:guide
       orientation="0,1"
       position="1085.4392,373.04452"
       id="guide10244" />
  </sodipodi:namedview>
  <metadata
     id="metadata7">
    <rdf:RDF>
      <cc:Work
         rdf:about="">
        <dc:format>image/svg+xml</dc:format>
        <dc:type
           rdf:resource="http://purl.org/dc/dcmitype/StillImage" />
      </cc:Work>
    </rdf:RDF>
  </metadata>
  <g
     inkscape:label="Layer 1"
     inkscape:groupmode="layer"
     id="layer1"
     style="display:inline">
    <g
       id="g9629"
       transform="matrix(0.8901714,0,0,-0.8901714,-42.22279,801.94124)" />
    <path
       style="opacity:1;fill:#000000;fill-opacity:1;fill-rule:nonzero;stroke:none;stroke-width:1;stroke-linecap:butt;stroke-linejoin:miter;marker:none;marker-start:none;marker-mid:none;marker-end:none;stroke-miterlimit:4;stroke-dasharray:none;stroke-dashoffset:0;stroke-opacity:1;visibility:visible;display:inline;overflow:visible;enable-background:accumulate"
       d="M 431.15625,380 C 358.48958,380 300,438.48958 300,511.15625 L 300,668.84375 C 300,741.51042 346.72203,811.24264 435,811.24264 C 495.94071,811.24264 660.46233,748.98008 660.46233,748.98008 C 666.77953,747.2874 668.53683,742.43216 668.07031,738.83548 C 668.07031,738.83548 668,690 668,690 L 420,690 C 414.5,690 410.0625,685.5625 410.0625,680.0625 L 410.0625,626.96875 L 711.15625,626.96875 L 711.15625,511.15625 C 711.15625,438.48958 652.66664,380 580,380 L 431.15625,380 z M 430,490 L 581.15625,490 C 591.15625,490 601.15625,500 601.15625,510 L 601.03125,550.98719 L 410,550.98719 L 410,510 C 410,500 420,490 430,490 z"
       id="rect10077"
       sodipodi:nodetypes="cccsccccccccccccccccc" />
  </g>
</svg>
